src/assets/spades_8.svg

<?xml version="1.0" encoding="UTF-8"?>
<svg xmlns="http://www.w3.org/2000/svg" xmlns:xlink="http://www.w3.org/1999/xlink" width="99px" height="140px" viewBox="0 0 99 140" version="1.1">
<g id="surface1">
<path style="fill-rule:nonzero;fill:rgb(100%,100%,100%);fill-opacity:1;stroke-width:0.755906;stroke-linecap:butt;stroke-linejoin:miter;stroke:rgb(50.196078%,50.196078%,50.196078%);stroke-opacity:1;stroke-miterlimit:4;" d="M 9.297585 719.743103 L 224.702415 719.743103 C 229.632812 719.743103 233.621449 723.747651 233.621449 728.681329 L 233.621449 1043.042991 C 233.621449 1047.976669 229.632812 1051.981217 224.702415 1051.981217 L 9.297585 1051.981217 C 4.367188 1051.981217 0.378551 1047.976669 0.378551 1043.042991 L 0.378551 728.681329 C 0.378551 723.747651 4.367188 719.743103 9.297585 719.743103 Z M 9.297585 719.743103 " transform="matrix(0.423077,0,0,0.42042,0,-302.434542)"/>
<path style=" stroke:none;fill-rule:nonzero;fill:rgb(0%,0%,0%);fill-opacity:1;" d="M 11.261719 11.714844 C 11.261719 12.890625 10.863281 13.785156 10.0625 14.394531 C 9.363281 14.929688 8.429688 15.199219 7.269531 15.199219 C 6.117188 15.199219 5.1875 14.910156 4.488281 14.339844 C 3.71875 13.703125 3.335938 12.804688 3.335938 11.632812 C 3.335938 10.40625 3.957031 9.5 5.195312 8.921875 C 4.242188 8.289062 3.765625 7.382812 3.765625 6.210938 C 3.765625 5.175781 4.152344 4.40625 4.933594 3.902344 C 5.570312 3.492188 6.410156 3.285156 7.453125 3.285156 C 8.40625 3.285156 9.1875 3.527344 9.796875 4.007812 C 10.472656 4.550781 10.8125 5.300781 10.8125 6.265625 C 10.8125 7.371094 10.335938 8.253906 9.386719 8.914062 C 10.636719 9.464844 11.261719 10.398438 11.261719 11.714844 Z M 8.839844 6.574219 C 8.839844 5.5625 8.320312 5.054688 7.285156 5.054688 C 6.8125 5.054688 6.433594 5.1875 6.15625 5.453125 C 5.875 5.714844 5.734375 6.085938 5.734375 6.574219 C 5.734375 7.046875 5.882812 7.417969 6.179688 7.695312 C 6.457031 7.964844 6.828125 8.101562 7.285156 8.101562 C 7.730469 8.101562 8.101562 7.964844 8.398438 7.6875 C 8.691406 7.410156 8.839844 7.039062 8.839844 6.574219 Z M 9.207031 11.640625 C 9.207031 11.078125 9.023438 10.636719 8.652344 10.308594 C 8.304688 10 7.855469 9.847656 7.308594 9.847656 C 6.765625 9.847656 6.324219 10.003906 5.976562 10.320312 C 5.601562 10.648438 5.414062 11.089844 5.414062 11.640625 C 5.414062 12.222656 5.597656 12.671875 5.960938 12.988281 C 6.296875 13.289062 6.75 13.4375 7.316406 13.4375 C 7.875 13.4375 8.324219 13.285156 8.660156 12.980469 C 9.023438 12.664062 9.207031 12.214844 9.207031 11.640625 Z M 9.207031 11.640625 "/>
<path style=" stroke:none;fill-rule:nonzero;fill:rgb(0%,0%,0%);fill-opacity:1;" d="M 87.738281 128.285156 C 87.738281 127.109375 88.140625 126.214844 88.941406 125.605469 C 89.648438 125.070312 90.582031 124.800781 91.753906 124.800781 C 92.910156 124.800781 93.839844 125.089844 94.546875 125.660156 C 95.316406 126.296875 95.703125 127.195312 95.703125 128.367188 C 95.703125 129.59375 95.082031 130.5 93.832031 131.078125 C 94.792969 131.710938 95.273438 132.617188 95.273438 133.789062 C 95.273438 134.824219 94.882812 135.59375 94.101562 136.097656 C 93.457031 136.507812 92.613281 136.714844 91.5625 136.714844 C 90.609375 136.714844 89.824219 136.472656 89.207031 135.992188 C 88.53125 135.449219 88.191406 134.699219 88.191406 133.734375 C 88.191406 132.628906 88.667969 131.746094 89.625 131.085938 C 88.367188 130.535156 87.738281 129.601562 87.738281 128.285156 Z M 90.171875 133.425781 C 90.171875 134.4375 90.691406 134.945312 91.738281 134.945312 C 92.210938 134.945312 92.589844 134.8125 92.871094 134.546875 C 93.152344 134.285156 93.292969 133.914062 93.292969 133.425781 C 93.292969 132.953125 93.144531 132.582031 92.847656 132.304688 C 92.566406 132.035156 92.195312 131.898438 91.738281 131.898438 C 91.289062 131.898438 90.914062 132.035156 90.617188 132.3125 C 90.320312 132.589844 90.171875 132.960938 90.171875 133.425781 Z M 89.804688 128.359375 C 89.804688 128.921875 89.988281 129.363281 90.359375 129.691406 C 90.707031 130 91.160156 130.152344 91.714844 130.152344 C 92.253906 130.152344 92.703125 129.996094 93.050781 129.679688 C 93.425781 129.351562 93.613281 128.910156 93.613281 128.359375 C 93.613281 127.777344 93.433594 127.328125 93.066406 127.011719 C 92.726562 126.710938 92.273438 126.5625 91.707031 126.5625 C 91.140625 126.5625 90.691406 126.714844 90.351562 127.019531 C 89.984375 127.335938 89.804688 127.785156 89.804688 128.359375 Z M 89.804688 128.359375 "/>
<path style=" stroke:none;fill-rule:nonzero;fill:rgb(0%,0%,0%);fill-opacity:1;" d="M 5.457031 25.789062 C 5.457031 25.554688 5.445312 25.386719 5.445312 25.152344 C 5.929688 25.152344 6.457031 25.152344 6.945312 25.152344 C 6.945312 24.597656 6.945312 24.558594 6.945312 24 C 5.996094 24.03125 4.96875 24.101562 4.078125 23.710938 C 3.390625 23.335938 3.199219 22.464844 3.339844 21.746094 C 3.457031 20.933594 3.910156 20.214844 4.503906 19.660156 C 5.273438 18.84375 6.253906 18.289062 7.277344 17.847656 C 8.324219 18.296875 9.328125 18.867188 10.105469 19.707031 C 10.808594 20.363281 11.277344 21.289062 11.261719 22.261719 C 11.277344 22.960938 10.839844 23.699219 10.121094 23.851562 C 9.316406 24.074219 8.5 24.035156 7.671875 24 C 7.671875 24.558594 7.671875 24.597656 7.671875 25.152344 C 8.160156 25.152344 8.605469 25.152344 9.09375 25.152344 C 9.09375 25.386719 9.105469 25.554688 9.105469 25.789062 C 7.992188 25.78125 6.660156 25.78125 5.457031 25.789062 Z M 5.457031 25.789062 "/>
<path style=" stroke:none;fill-rule:nonzero;fill:rgb(0%,0%,0%);fill-opacity:1;" d="M 89.898438 114.210938 C 89.898438 114.445312 89.886719 114.613281 89.886719 114.847656 C 90.371094 114.847656 90.898438 114.847656 91.386719 114.847656 C 91.386719 115.402344 91.386719 115.441406 91.386719 116 C 90.4375 115.96875 89.410156 115.898438 88.519531 116.289062 C 87.832031 116.664062 87.640625 117.535156 87.78125 118.253906 C 87.898438 119.066406 88.351562 119.785156 88.945312 120.339844 C 89.714844 121.15625 90.695312 121.710938 91.71875 122.152344 C 92.765625 121.703125 93.769531 121.132812 94.546875 120.292969 C 95.25 119.636719 95.71875 118.710938 95.703125 117.738281 C 95.71875 117.039062 95.28125 116.300781 94.5625 116.148438 C 93.757812 115.925781 92.941406 115.964844 92.113281 116 C 92.113281 115.441406 92.113281 115.402344 92.113281 114.847656 C 92.601562 114.847656 93.046875 114.847656 93.535156 114.847656 C 93.535156 114.613281 93.546875 114.445312 93.546875 114.210938 C 92.433594 114.21875 91.101562 114.21875 89.898438 114.210938 Z M 89.898438 114.210938 "/>
<path style=" stroke:none;fill-rule:nonzero;fill:rgb(0%,0%,0%);fill-opacity:1;" d="M 44.035156 79.132812 C 44.035156 79.835938 43.996094 80.339844 43.996094 81.042969 C 45.453125 81.042969 47.035156 81.042969 48.492188 81.042969 C 48.492188 82.710938 48.492188 82.828125 48.492188 84.496094 C 45.644531 84.402344 42.5625 84.195312 39.894531 85.363281 C 37.832031 86.488281 37.261719 89.109375 37.679688 91.261719 C 38.035156 93.695312 39.394531 95.851562 41.167969 97.515625 C 43.476562 99.96875 46.421875 101.628906 49.496094 102.960938 C 52.632812 101.605469 55.644531 99.894531 57.980469 97.375 C 60.089844 95.40625 61.492188 92.628906 61.449219 89.71875 C 61.492188 87.617188 60.183594 85.398438 58.023438 84.9375 C 55.609375 84.273438 53.164062 84.390625 50.683594 84.496094 C 50.683594 82.828125 50.683594 82.710938 50.683594 81.042969 C 52.140625 81.042969 53.480469 81.042969 54.9375 81.042969 C 54.9375 80.339844 54.976562 79.835938 54.976562 79.132812 C 51.636719 79.15625 47.640625 79.15625 44.035156 79.132812 Z M 44.035156 79.132812 "/>
<path style=" stroke:none;fill-rule:nonzero;fill:rgb(0%,0%,0%);fill-opacity:1;" d="M 19.339844 39.820312 C 19.339844 39.117188 19.300781 38.613281 19.300781 37.910156 C 20.757812 37.910156 22.339844 37.910156 23.796875 37.910156 C 23.796875 36.242188 23.796875 36.125 23.796875 34.457031 C 20.949219 34.550781 17.867188 34.757812 15.199219 33.589844 C 13.136719 32.464844 12.566406 29.84375 12.984375 27.691406 C 13.339844 25.257812 14.699219 23.101562 16.472656 21.4375 C 18.78125 18.984375 21.726562 17.328125 24.800781 15.992188 C 27.9375 17.347656 30.949219 19.058594 33.285156 21.578125 C 35.394531 23.546875 36.796875 26.324219 36.753906 29.234375 C 36.796875 31.335938 35.488281 33.554688 33.328125 34.015625 C 30.914062 34.679688 28.46875 34.5625 25.988281 34.457031 C 25.988281 36.125 25.988281 36.242188 25.988281 37.910156 C 27.445312 37.910156 28.785156 37.910156 30.242188 37.910156 C 30.242188 38.613281 30.28125 39.117188 30.28125 39.820312 C 26.941406 39.796875 22.945312 39.796875 19.339844 39.820312 Z M 19.339844 39.820312 "/>
<path style=" stroke:none;fill-rule:nonzero;fill:rgb(0%,0%,0%);fill-opacity:1;" d="M 68.730469 39.820312 C 68.730469 39.117188 68.691406 38.613281 68.691406 37.910156 C 70.148438 37.910156 71.730469 37.910156 73.1875 37.910156 C 73.1875 36.242188 73.1875 36.125 73.1875 34.457031 C 70.339844 34.550781 67.257812 34.757812 64.589844 33.589844 C 62.527344 32.464844 61.957031 29.84375 62.375 27.691406 C 62.730469 25.257812 64.089844 23.101562 65.863281 21.4375 C 68.171875 18.984375 71.117188 17.328125 74.191406 15.992188 C 77.328125 17.347656 80.339844 19.058594 82.675781 21.578125 C 84.78125 23.546875 86.1875 26.324219 86.144531 29.234375 C 86.1875 31.335938 84.878906 33.554688 82.71875 34.015625 C 80.304688 34.679688 77.859375 34.5625 75.378906 34.457031 C 75.378906 36.125 75.378906 36.242188 75.378906 37.910156 C 76.835938 37.910156 78.171875 37.910156 79.632812 37.910156 C 79.632812 38.613281 79.671875 39.117188 79.671875 39.820312 C 76.332031 39.796875 72.335938 39.796875 68.730469 39.820312 Z M 68.730469 39.820312 "/>
<path style=" stroke:none;fill-rule:nonzero;fill:rgb(0%,0%,0%);fill-opacity:1;" d="M 44.035156 60.867188 C 44.035156 60.164062 43.996094 59.660156 43.996094 58.957031 C 45.453125 58.957031 47.035156 58.957031 48.492188 58.957031 C 48.492188 57.289062 48.492188 57.171875 48.492188 55.503906 C 45.644531 55.597656 42.5625 55.804688 39.894531 54.636719 C 37.832031 53.511719 37.261719 50.890625 37.679688 48.738281 C 38.035156 46.304688 39.394531 44.148438 41.167969 42.484375 C 43.476562 40.03125 46.421875 38.371094 49.496094 37.039062 C 52.632812 38.394531 55.644531 40.105469 57.980469 42.625 C 60.089844 44.59375 61.492188 47.371094 61.449219 50.28125 C 61.492188 52.382812 60.183594 54.601562 58.023438 55.0625 C 55.609375 55.726562 53.164062 55.609375 50.683594 55.503906 C 50.683594 57.171875 50.683594 57.289062 50.683594 58.957031 C 52.140625 58.957031 53.480469 58.957031 54.9375 58.957031 C 54.9375 59.660156 54.976562 60.164062 54.976562 60.867188 C 51.636719 60.84375 47.640625 60.84375 44.035156 60.867188 Z M 44.035156 60.867188 "/>
<path style=" stroke:none;fill-rule:nonzero;fill:rgb(0%,0%,0%);fill-opacity:1;" d="M 19.339844 81.914062 C 19.339844 81.210938 19.300781 80.707031 19.300781 80.003906 C 20.757812 80.003906 22.339844 80.003906 23.796875 80.003906 C 23.796875 78.335938 23.796875 78.21875 23.796875 76.550781 C 20.949219 76.644531 17.867188 76.851562 15.199219 75.683594 C 13.136719 74.558594 12.566406 71.9375 12.984375 69.785156 C 13.339844 67.351562 14.699219 65.191406 16.472656 63.53125 C 18.78125 61.078125 21.726562 59.417969 24.800781 58.085938 C 27.9375 59.441406 30.949219 61.152344 33.285156 63.671875 C 35.394531 65.640625 36.796875 68.417969 36.753906 71.328125 C 36.796875 73.429688 35.488281 75.648438 33.328125 76.105469 C 30.914062 76.773438 28.46875 76.65625 25.988281 76.550781 C 25.988281 78.21875 25.988281 78.335938 25.988281 80.003906 C 27.445312 80.003906 28.785156 80.003906 30.242188 80.003906 C 30.242188 80.707031 30.28125 81.210938 30.28125 81.914062 C 26.941406 81.890625 22.945312 81.890625 19.339844 81.914062 Z M 19.339844 81.914062 "/>
<path style=" stroke:none;fill-rule:nonzero;fill:rgb(0%,0%,0%);fill-opacity:1;" d="M 68.730469 81.914062 C 68.730469 81.210938 68.691406 80.707031 68.691406 80.003906 C 70.148438 80.003906 71.730469 80.003906 73.1875 80.003906 C 73.1875 78.335938 73.1875 78.21875 73.1875 76.550781 C 70.339844 76.644531 67.257812 76.851562 64.589844 75.683594 C 62.527344 74.558594 61.957031 71.9375 62.375 69.785156 C 62.730469 67.351562 64.089844 65.191406 65.863281 63.53125 C 68.171875 61.078125 71.117188 59.417969 74.191406 58.085938 C 77.328125 59.441406 80.339844 61.152344 82.675781 63.671875 C 84.78125 65.640625 86.1875 68.417969 86.144531 71.328125 C 86.1875 73.429688 84.878906 75.648438 82.71875 76.105469 C 80.304688 76.773438 77.859375 76.65625 75.378906 76.550781 C 75.378906 78.21875 75.378906 78.335938 75.378906 80.003906 C 76.835938 80.003906 78.171875 80.003906 79.632812 80.003906 C 79.632812 80.707031 79.671875 81.210938 79.671875 81.914062 C 76.332031 81.890625 72.335938 81.890625 68.730469 81.914062 Z M 68.730469 81.914062 "/>
<path style=" stroke:none;fill-rule:nonzero;fill:rgb(0%,0%,0%);fill-opacity:1;" d="M 19.339844 100.179688 C 19.339844 100.882812 19.300781 101.386719 19.300781 102.089844 C 20.757812 102.089844 22.339844 102.089844 23.796875 102.089844 C 23.796875 103.757812 23.796875 103.875 23.796875 105.542969 C 20.949219 105.449219 17.867188 105.242188 15.199219 106.410156 C 13.136719 107.535156 12.566406 110.15625 12.984375 112.308594 C 13.339844 114.742188 14.699219 116.898438 16.472656 118.5625 C 18.78125 121.015625 21.726562 122.671875 24.800781 124.007812 C 27.9375 122.652344 30.949219 120.941406 33.285156 118.421875 C 35.394531 116.453125 36.796875 113.675781 36.753906 110.765625 C 36.796875 108.664062 35.488281 106.445312 33.328125 105.984375 C 30.914062 105.320312 28.46875 105.4375 25.988281 105.542969 C 25.988281 103.875 25.988281 103.757812 25.988281 102.089844 C 27.445312 102.089844 28.785156 102.089844 30.242188 102.089844 C 30.242188 101.386719 30.28125 100.882812 30.28125 100.179688 C 26.941406 100.203125 22.945312 100.203125 19.339844 100.179688 Z M 19.339844 100.179688 "/>
<path style=" stroke:none;fill-rule:nonzero;fill:rgb(0%,0%,0%);fill-opacity:1;" d="M 68.730469 100.179688 C 68.730469 100.882812 68.691406 101.386719 68.691406 102.089844 C 70.148438 102.089844 71.730469 102.089844 73.1875 102.089844 C 73.1875 103.757812 73.1875 103.875 73.1875 105.542969 C 70.339844 105.449219 67.257812 105.242188 64.589844 106.410156 C 62.527344 107.535156 61.957031 110.15625 62.375 112.308594 C 62.730469 114.742188 64.089844 116.898438 65.863281 118.5625 C 68.171875 121.015625 71.117188 122.671875 74.191406 124.007812 C 77.328125 122.652344 80.339844 120.941406 82.675781 118.421875 C 84.78125 116.453125 86.1875 113.675781 86.144531 110.765625 C 86.1875 108.664062 84.878906 106.445312 82.71875 105.984375 C 80.304688 105.320312 77.859375 105.4375 75.378906 105.542969 C 75.378906 103.875 75.378906 103.757812 75.378906 102.089844 C 76.835938 102.089844 78.171875 102.089844 79.632812 102.089844 C 79.632812 101.386719 79.671875 100.882812 79.671875 100.179688 C 76.332031 100.203125 72.335938 100.203125 68.730469 100.179688 Z M 68.730469 100.179688 "/>
</g>
</svg>

<svg xmlns="http://www.w3.org/2000/svg" width="99" height="140"><path d="M9.298 719.743h215.404c4.93 0 8.92 4.005 8.92 8.938v314.362c0 4.934-3.99 8.938-8.92 8.938H9.298c-4.93 0-8.92-4.004-8.92-8.938V728.681c0-4.933 3.99-8.938 8.92-8.938Zm0 0" style="fill-rule:nonzero;fill:#fff;fill-opacity:1;stroke-width:.755906;stroke-linecap:butt;stroke-linejoin:miter;stroke:gray;stroke-opacity:1;stroke-miterlimit:4" transform="matrix(.42308 0 0 .42042 0 -302.435)"/><path d="M11.262 11.715c0 1.176-.399 2.07-1.2 2.68-.699.535-1.632.804-2.792.804-1.153 0-2.082-.289-2.782-.86-.77-.636-1.152-1.534-1.152-2.706 0-1.227.621-2.133 1.86-2.711-.954-.633-1.43-1.54-1.43-2.711 0-1.035.386-1.805 1.168-2.309.636-.41 1.476-.617 2.52-.617.952 0 1.734.242 2.343.723.676.543 1.015 1.293 1.015 2.258 0 1.105-.476 1.988-1.425 2.648 1.25.55 1.875 1.484 1.875 2.8ZM8.84 6.575c0-1.013-.52-1.52-1.555-1.52-.473 0-.851.133-1.129.398-.281.262-.422.633-.422 1.121 0 .473.149.844.446 1.121.277.27.648.407 1.105.407.445 0 .817-.137 1.113-.415.293-.277.442-.648.442-1.113Zm.367 5.066c0-.563-.184-1.004-.555-1.332-.347-.309-.797-.461-1.343-.461-.543 0-.985.156-1.332.472-.375.328-.563.77-.563 1.32 0 .583.184 1.032.547 1.348.336.301.789.45 1.355.45.559 0 1.008-.153 1.344-.458.363-.316.547-.765.547-1.34ZM87.738 128.285c0-1.176.403-2.07 1.203-2.68.707-.535 1.641-.804 2.813-.804 1.156 0 2.086.289 2.793.86.77.636 1.156 1.534 1.156 2.706 0 1.227-.621 2.133-1.871 2.711.961.633 1.441 1.54 1.441 2.711 0 1.035-.39 1.805-1.171 2.309-.645.41-1.489.617-2.54.617-.953 0-1.738-.242-2.355-.723-.676-.543-1.016-1.293-1.016-2.258 0-1.105.477-1.988 1.434-2.648-1.258-.55-1.887-1.484-1.887-2.8Zm2.434 5.14c0 1.012.52 1.52 1.566 1.52.473 0 .852-.132 1.133-.398.281-.262.422-.633.422-1.121 0-.473-.148-.844-.445-1.121-.282-.27-.653-.407-1.11-.407-.449 0-.824.137-1.12.415-.298.277-.446.648-.446 1.113Zm-.367-5.066c0 .563.183 1.004.554 1.332.348.309.801.461 1.356.461.539 0 .988-.156 1.336-.472.375-.328.562-.77.562-1.32 0-.583-.18-1.032-.547-1.348-.34-.301-.793-.45-1.359-.45s-1.016.153-1.355.458c-.368.316-.547.765-.547 1.34ZM5.457 25.79c0-.235-.012-.403-.012-.638h1.5V24c-.949.031-1.976.102-2.867-.29-.687-.374-.879-1.245-.738-1.964.117-.812.57-1.531 1.164-2.086.77-.816 1.75-1.37 2.773-1.812 1.047.449 2.051 1.02 2.828 1.859.704.656 1.172 1.582 1.157 2.555.015.699-.422 1.437-1.14 1.59-.806.222-1.622.183-2.45.148v1.152h1.422c0 .235.011.403.011.637a283.894 283.894 0 0 0-3.648 0ZM89.898 114.21c0 .235-.011.403-.011.638h1.5V116c-.95-.031-1.977-.102-2.867.29-.688.374-.88 1.245-.739 1.964.117.812.57 1.531 1.164 2.086.77.816 1.75 1.37 2.774 1.812 1.047-.449 2.05-1.02 2.828-1.859.703-.656 1.172-1.582 1.156-2.555.016-.699-.422-1.437-1.14-1.59-.805-.222-1.622-.183-2.45-.148v-1.152h1.422c0-.235.012-.403.012-.637-1.113.008-2.445.008-3.649 0ZM44.035 79.133c0 .703-.039 1.207-.039 1.91h4.496v3.453c-2.847-.094-5.93-.3-8.597.867-2.063 1.125-2.633 3.746-2.215 5.899.355 2.433 1.715 4.59 3.488 6.254 2.309 2.453 5.254 4.113 8.328 5.445 3.137-1.356 6.149-3.066 8.484-5.586 2.11-1.969 3.512-4.746 3.47-7.656.042-2.102-1.266-4.32-3.427-4.781-2.414-.665-4.859-.547-7.34-.442v-3.453h4.255c0-.703.039-1.207.039-1.91-3.34.023-7.336.023-10.942 0ZM19.34 39.82c0-.703-.04-1.207-.04-1.91h4.497v-3.453c-2.848.094-5.93.3-8.598-.867-2.062-1.125-2.633-3.746-2.215-5.899.356-2.433 1.715-4.59 3.489-6.253 2.308-2.454 5.254-4.11 8.328-5.446 3.137 1.356 6.148 3.067 8.484 5.586 2.11 1.969 3.512 4.746 3.469 7.656.043 2.102-1.266 4.32-3.426 4.782-2.414.664-4.86.547-7.34.441v3.453h4.254c0 .703.04 1.207.04 1.91-3.34-.023-7.337-.023-10.942 0ZM68.73 39.82c0-.703-.039-1.207-.039-1.91h4.496v-3.453c-2.847.094-5.93.3-8.597-.867-2.063-1.125-2.633-3.746-2.215-5.899.355-2.433 1.715-4.59 3.488-6.253 2.309-2.454 5.254-4.11 8.328-5.446 3.137 1.356 6.149 3.067 8.485 5.586 2.105 1.969 3.511 4.746 3.469 7.656.043 2.102-1.266 4.32-3.426 4.782-2.414.664-4.86.547-7.34.441v3.453h4.254c0 .703.039 1.207.039 1.91-3.34-.023-7.336-.023-10.942 0ZM44.035 60.867c0-.703-.039-1.207-.039-1.91h4.496v-3.453c-2.847.094-5.93.3-8.597-.867-2.063-1.125-2.633-3.746-2.215-5.899.355-2.433 1.715-4.59 3.488-6.254 2.309-2.453 5.254-4.113 8.328-5.445 3.137 1.356 6.149 3.066 8.484 5.586 2.11 1.969 3.512 4.746 3.47 7.656.042 2.102-1.266 4.32-3.427 4.782-2.414.664-4.859.546-7.34.44v3.454h4.255c0 .703.039 1.207.039 1.91a851.01 851.01 0 0 0-10.942 0ZM19.34 81.914c0-.703-.04-1.207-.04-1.91h4.497V76.55c-2.848.094-5.93.3-8.598-.867-2.062-1.125-2.633-3.746-2.215-5.899.356-2.433 1.715-4.594 3.489-6.254 2.308-2.453 5.254-4.113 8.328-5.445 3.137 1.355 6.148 3.066 8.484 5.586 2.11 1.969 3.512 4.746 3.469 7.656.043 2.102-1.266 4.32-3.426 4.777-2.414.668-4.86.551-7.34.446v3.453h4.254c0 .703.04 1.207.04 1.91-3.34-.023-7.337-.023-10.942 0ZM68.73 81.914c0-.703-.039-1.207-.039-1.91h4.496V76.55c-2.847.094-5.93.3-8.597-.867-2.063-1.125-2.633-3.746-2.215-5.899.355-2.433 1.715-4.594 3.488-6.254 2.309-2.453 5.254-4.113 8.328-5.445 3.137 1.355 6.149 3.066 8.485 5.586 2.105 1.969 3.511 4.746 3.469 7.656.043 2.102-1.266 4.32-3.426 4.777-2.414.668-4.86.551-7.34.446v3.453h4.254c0 .703.039 1.207.039 1.91-3.34-.023-7.336-.023-10.942 0ZM19.34 100.18c0 .703-.04 1.207-.04 1.91h4.497v3.453c-2.848-.094-5.93-.3-8.598.867-2.062 1.125-2.633 3.746-2.215 5.899.356 2.433 1.715 4.59 3.489 6.254 2.308 2.453 5.254 4.109 8.328 5.445 3.137-1.356 6.148-3.067 8.484-5.586 2.11-1.969 3.512-4.746 3.469-7.656.043-2.102-1.266-4.32-3.426-4.782-2.414-.664-4.86-.546-7.34-.441v-3.453h4.254c0-.703.04-1.207.04-1.91-3.34.023-7.337.023-10.942 0ZM68.73 100.18c0 .703-.039 1.207-.039 1.91h4.496v3.453c-2.847-.094-5.93-.3-8.597.867-2.063 1.125-2.633 3.746-2.215 5.899.355 2.433 1.715 4.59 3.488 6.254 2.309 2.453 5.254 4.109 8.328 5.445 3.137-1.356 6.149-3.067 8.485-5.586 2.105-1.969 3.511-4.746 3.469-7.656.043-2.102-1.266-4.32-3.426-4.782-2.414-.664-4.86-.546-7.34-.441v-3.453h4.254c0-.703.039-1.207.039-1.91-3.34.023-7.336.023-10.942 0Zm0 0" style="stroke:none;fill-rule:nonzero;fill:#000;fill-opacity:1"/></svg>
